!!!OTL: VOM ALTEN DEUTSCHEN MEER UMFLOSSEN
!!!ARE: Europa, Mitteleuropa, Deutschland, Thueringen
!!!SCT: B0028
!!!YEM: Copyright 1995, estate of Helmut Schaffrath.
**kern
*ICvox
*Ivox
*M4/4
*k[b-e-]
*B-:
{8f
8f
8f
=1
4b-
4b-
4dd
8b-
8f
=2
4f
4f
8r}
{8f
8f
8f
=3
4cc
4cc
4ee-
8cc
8a
=4
2b-
8r}
{8b-
8b-
8b-
=5
8b-
8g
8g
8en
4c
8c
8b-
=6
8a
8f
4f
8r}
{8f
8f
8f
=7
4.a
8f
4b-
4f
=8
8cc
8a
4f
4r}
{4f
=9
4.b-
8b-
4dd
4b-
=10
4.b-
8g
4g
8r}
{8g
=11
4.cc
8g
4ee-
8dd
8cc
=12
2b-
4dd
4cc
=13
2b-
8r}
==
!!!AGN: politisch, national, Vaterlands - Lied
!!!ONB: ESAC (Essen Associative Code) Database: BOEHME
!!!AMT: simple quadruple
!!!AIN: vox
!!!EED: Helmut Schaffrath
!!!EEV: 1.0
*-
